rospo-icon-theme-classic-common/16x16/apps/boswars.svg

<svg height="16" width="16" xmlns="http://www.w3.org/2000/svg"><path d="m6.5 4a3.4999986 3.4999936 0 0 0 -3.4589844 3h .4960938 6.2265625.1972656a3.4999986 3.4999936 0 0 0 -.2714844-.9238281c-.0095175-.0268439-.0126246-.0462891-.0234375-.0761719h5.3339844v-1h-5.7695312c-.5879-.7037-1.5510782-.9988-2.5800782-1-.013401 0-.0257011.0037672-.0390625.0039062a3.4999986 3.4999936 0 0 0 -.1113281-.0039062z" fill="#afafb1"/><rect fill="#8e8e8e" height="4" rx=".684" ry=".667" width="13" x="1" y="7"/><rect fill="#4f4f4f" height="3" rx="1.323" ry="1.5" width="9" x="3" y="10"/><g fill="#c4c4c4"><path d="m4 11h1v1h-1z"/><path d="m6 11h1v1h-1z"/><path d="m8 11h1v1h-1z"/><path d="m10 11h1v1h-1z"/></g></svg>

<svg xmlns="http://www.w3.org/2000/svg" width="16" height="16" version="1">
 <path style="fill:#afafb1" d="M 6.5 4 A 3.4999986 3.4999936 0 0 0 3.0410156 7 L 3.5371094 7 L 9.7636719 7 L 9.9609375 7 A 3.4999986 3.4999936 0 0 0 9.6894531 6.0761719 C 9.6799356 6.049328 9.6768285 6.0298828 9.6660156 6 L 15 6 L 15 5 L 9.2304688 5 C 8.6425688 4.2963 7.6793906 4.0012 6.6503906 4 C 6.6369896 4 6.6246895 4.0037672 6.6113281 4.0039062 A 3.4999986 3.4999936 0 0 0 6.5 4 z"/>
 <rect width="13" height="4" x="1" y="7" rx=".684" ry=".667" style="fill:#8e8e8e"/>
 <rect width="9" height="3" x="3" y="10" rx="1.323" ry="1.5" style="fill:#4f4f4f"/>
 <rect style="fill:#c4c4c4;stroke:#000000;stroke-width:0;stroke-linecap:round;stroke-linejoin:round" width="1" height="1" x="4" y="11"/>
 <rect width="1" height="1" x="6" y="11" style="fill:#c4c4c4;stroke:#000000;stroke-width:0;stroke-linecap:round;stroke-linejoin:round"/>
 <rect style="fill:#c4c4c4;stroke:#000000;stroke-width:0;stroke-linecap:round;stroke-linejoin:round" width="1" height="1" x="8" y="11"/>
 <rect width="1" height="1" x="10" y="11" style="fill:#c4c4c4;stroke:#000000;stroke-width:0;stroke-linecap:round;stroke-linejoin:round"/>
</svg>
